libs/ui/packages/crypto-icons/src/svg/DCN.svg

<svg width="24" height="24" viewBox="0 0 24 24" fill="none">
<path fill-rule="evenodd" clip-rule="evenodd" d="M7.82702 23.2545C6.25561 22.6707 4.82389 21.7642 3.62402 20.5935L3.73427 20.4007C5.52527 17.571 7.13402 14.6423 8.34527 11.5133C9.63002 8.1945 10.6583 4.788 11.6378 1.368C11.7255 1.06275 11.8298 0.76275 11.9258 0.4605C12.0293 0.579 12.0668 0.68925 12.0983 0.801C12.7133 2.9955 13.308 5.196 13.9463 7.383C15.1088 11.3678 16.7438 15.1477 18.909 18.6908C19.1618 19.1033 19.5915 19.7948 20.199 20.7623C18.9058 21.9744 17.36 22.8847 15.6728 23.4277C14.4293 19.6329 13.1788 15.8404 11.9213 12.0502L11.8058 12.0487C10.9313 14.5065 9.60527 18.2415 7.82702 23.2545ZM12.0563 0.03675H11.9633L12 0L12.0563 0.03675Z" fill="#136485"/>
<path fill-rule="evenodd" clip-rule="evenodd" d="M7.82702 23.2545C6.25561 22.6707 4.82389 21.7642 3.62402 20.5935L3.73427 20.4007C5.52527 17.571 7.13402 14.6423 8.34527 11.5133C9.63002 8.1945 10.6583 4.788 11.6378 1.368C11.7255 1.06275 11.8298 0.76275 11.9258 0.4605C12.0293 0.579 12.0668 0.68925 12.0983 0.801C12.7133 2.9955 13.308 5.196 13.9463 7.383C15.1088 11.3678 16.7438 15.1477 18.909 18.6908C19.1618 19.1033 19.5915 19.7948 20.199 20.7623C18.9058 21.9744 17.36 22.8847 15.6728 23.4277C14.4293 19.6329 13.1788 15.8404 11.9213 12.0502L11.8058 12.0487C10.9313 14.5065 9.60527 18.2415 7.82702 23.2545ZM12.0563 0.03675H11.9633L12 0L12.0563 0.03675Z" fill="#136485"/>
</svg>

<svg width="24" height="24" viewBox="0 0 24 24" fill="none"><path fill="#136485" fill-rule="evenodd" d="M7.827 23.255a12 12 0 0 1-4.203-2.661l.11-.193c1.791-2.83 3.4-5.759 4.611-8.888 1.285-3.318 2.313-6.725 3.293-10.145.088-.305.192-.605.288-.908a.8.8 0 0 1 .172.341c.615 2.194 1.21 4.395 1.848 6.582 1.163 3.985 2.798 7.765 4.963 11.308q.38.62 1.29 2.071a12 12 0 0 1-4.526 2.666A3246 3246 0 0 0 11.92 12.05l-.115-.001q-1.312 3.686-3.979 11.206M12.057.037h-.094L12 0z" clip-rule="evenodd"/><path fill="#136485" fill-rule="evenodd" d="M7.827 23.255a12 12 0 0 1-4.203-2.661l.11-.193c1.791-2.83 3.4-5.759 4.611-8.888 1.285-3.318 2.313-6.725 3.293-10.145.088-.305.192-.605.288-.908a.8.8 0 0 1 .172.341c.615 2.194 1.21 4.395 1.848 6.582 1.163 3.985 2.798 7.765 4.963 11.308q.38.62 1.29 2.071a12 12 0 0 1-4.526 2.666A3246 3246 0 0 0 11.92 12.05l-.115-.001q-1.312 3.686-3.979 11.206M12.057.037h-.094L12 0z" clip-rule="evenodd"/></svg>
